src/resources/icons/file-directory.svg

<svg xmlns="http://www.w3.org/2000/svg" viewBox="0 0 16 16" width="16" height="16"><path fill-rule="evenodd" d="M1.75 1A1.75 1.75 0 000 2.75v10.5C0 14.216.784 15 1.75 15h12.5A1.75 1.75 0 0016 13.25v-8.5A1.75 1.75 0 0014.25 3h-6.5a.25.25 0 01-.2-.1l-.9-1.2c-.33-.44-.85-.7-1.4-.7h-3.5z"></path></svg>

<?xml version="1.0" encoding="UTF-8" standalone="no"?>
<!DOCTYPE svg PUBLIC "-//W3C//DTD SVG 1.1//EN" "http://www.w3.org/Graphics/SVG/1.1/DTD/svg11.dtd">
<svg width="100%" height="100%" viewBox="0 0 16 16" version="1.1" xmlns="http://www.w3.org/2000/svg" xmlns:xlink="http://www.w3.org/1999/xlink" xml:space="preserve" xmlns:serif="http://www.serif.com/" style="fill-rule:evenodd;clip-rule:evenodd;stroke-linejoin:round;stroke-miterlimit:2;">
    <path d="M1.75,1C0.79,1 -0,1.79 0,2.75L0,13.25C0,14.216 0.784,15 1.75,15L14.25,15C15.21,15 16,14.21 16,13.25L16,4.75C16,3.79 15.21,3 14.25,3L7.75,3C7.671,3 7.597,2.963 7.55,2.9L6.65,1.7C6.32,1.26 5.8,1 5.25,1L1.75,1Z" style="fill:rgb(242,242,242);"/>
</svg>
